examples/domain-1d-lut.cube
TITLE "Domain 1D LUT"
DOMAIN_MIN 0.0 0.0 0.0
DOMAIN_MAX 2.0 2.0 2.0
LUT_1D_SIZE 2
0.0 0.0 0.0
1.0 1.0 1.0
